**kern	**kern	**kern	**kern	**kern
*MM76	*MM76	*MM76	*MM76	*MM76
*k[b-]	*k[b-]	*k[b-]	*k[b-]	*k[b-]
*M4/4	*M4/4	*M4/4	*M4/4	*M4/4
*tb32	*tb32	*tb32	*tb32	*tb32
=1	=1	=1	=1	=1
1r	4r	1r	1r	1r
.	8r	.	.	.
.	8F	.	.	.
.	8G	.	.	.
.	8F	.	.	.
.	8G	.	.	.
.	8A	.	.	.
=2	=2	=2	=2	=2
1r	16B-	1r	1r	1r
.	16c	.	.	.
.	16B-	.	.	.
.	16c	.	.	.
.	16B-	.	.	.
.	16c	.	.	.
.	16B-	.	.	.
.	16c	.	.	.
.	16A	.	.	.
.	16B-	.	.	.
.	16A	.	.	.
.	16B-	.	.	.
.	16A	.	.	.
.	16B-	.	.	.
.	16A	.	.	.
.	16B-	.	.	.
=3	=3	=3	=3	=3
1r	8G	1r	2r	1r
.	16A	.	.	.
.	16B-	.	.	.
.	8c	.	.	.
.	8B-	.	.	.
.	8A	.	4r	.
.	8G	.	.	.
.	8A	.	8r	.
.	8F	.	8c	.
=4	=4	=4	=4	=4
1r	8B-	1r	8d	1r
.	8A	.	8c	.
.	8B-	.	8d	.
.	8G	.	8e	.
.	4A	.	16f	.
.	.	.	16g	.
.	.	.	16f	.
.	.	.	16g	.
.	4d	.	16f	.
.	.	.	16g	.
.	.	.	16f	.
.	.	.	16g	.
=5	=5	=5	=5	=5
1r	4G	1r	16e	1r
.	.	.	16f	.
.	.	.	16e	.
.	.	.	16f	.
.	2c	.	16e	.
.	.	.	16f	.
.	.	.	16e	.
.	.	.	16f	.
.	.	.	8d	.
.	.	.	16e	.
.	.	.	16f	.
.	4B	.	8g	.
.	.	.	8f	.
=6	=6	=6	=6	=6
1r	4B-	1r	8e	1r
.	.	.	8c	.
.	8A	.	2f	.
.	8F	.	.	.
.	8G	.	.	.
.	16A	.	.	.
.	16B-	.	.	.
.	8c	.	4et	.
.	8B-	.	.	.
=7	=7	=7	=7	=7
1r	8A	1r	4f	4r
.	8G	.	.	.
.	2F	.	4A	8r
.	.	.	.	8f
.	.	.	2G	8g
.	.	.	.	8f
.	4E-	.	.	8g
.	.	.	.	8a
=8	=8	=8	=8	=8
1r	4D	1r	4F	16b-
.	.	.	.	16cc
.	.	.	.	16b-
.	.	.	.	16cc
.	4G	.	4G	16b-
.	.	.	.	16cc
.	.	.	.	16b-
.	.	.	.	16cc
.	4C	.	4E	16a
.	.	.	.	16b-
.	.	.	.	16a
.	.	.	.	16b-
.	[4F	.	4F	16a
.	.	.	.	16b-
.	.	.	.	16a
.	.	.	.	16b-
=9	=9	=9	=9	=9
2r	4F]	1r	2G	8g
.	.	.	.	16a
.	.	.	.	16b-
.	4E	.	.	8cc
.	.	.	.	8b-
4r	4F	.	4F	8a
.	.	.	.	8f
8r	8r	.	8r	[4cc
8C	8E	.	8g	.
=10	=10	=10	=10	=10
8D	8F	1r	4.f	4cc]
8C	8E	.	.	.
8D	8F	.	.	4b-
8E	8G	.	8c	.
16F	4A	.	4c	2a
16G	.	.	.	.
16F	.	.	.	.
16G	.	.	.	.
16F	4d	.	[4d	.
16G	.	.	.	.
16F	.	.	.	.
16G	.	.	.	.
=11	=11	=11	=11	=11
16E	2G	1r	4d]	2g
16F	.	.	.	.
16E	.	.	.	.
16F	.	.	.	.
16E	.	.	[4c	.
16F	.	.	.	.
16E	.	.	.	.
16F	.	.	.	.
4D	4A	.	8c]	2f
.	.	.	16d	.
.	.	.	16c	.
4G	4G	.	4Bt	.
=12	=12	=12	=12	=12
1C	4.G	1r	4c	4e
.	.	.	2e	4r
.	8F	.	.	.
.	8G	.	.	2r
.	8F	.	.	.
.	8G	.	8e-	.
.	8A	.	8c	.
=13	=13	=13	=13	=13
2G	16B-	1r	4d	1r
.	16c	.	.	.
.	16B-	.	.	.
.	16c	.	.	.
.	16B-	.	[4g	.
.	16c	.	.	.
.	16B-	.	.	.
.	16c	.	.	.
2D	4A	.	16g]	.
.	.	.	16a	.
.	.	.	16g	.
.	.	.	16a	.
.	[4d	.	16f	.
.	.	.	16g	.
.	.	.	16f	.
.	.	.	16g	.
=14	=14	=14	=14	=14
[2A	8d]	1r	4.e	4r
.	16c	.	.	.
.	16B	.	.	.
.	4c	.	.	8r
.	.	.	8e	8cc
4.A]	4.B-	.	8f	8dd
.	.	.	8e	8cc
.	.	.	8f	8dd
8G	8B-	.	8g	8ee
=15	=15	=15	=15	=15
4F	4c	1r	8a	16ff
.	.	.	.	16gg
.	.	.	8a	16ff
.	.	.	.	16gg
4D	4d	.	8b	16ff
.	.	.	.	16gg
.	.	.	8b	16ff
.	.	.	.	16gg
4E	4G	.	8g	16ee
.	.	.	.	16ff
.	.	.	8g	16ee
.	.	.	.	16ff
4C	[4c	.	8g	16ee
.	.	.	.	16ff
.	.	.	8g	16ee
.	.	.	.	16ff
=16	=16	=16	=16	=16
2G	4c]	1r	4.g	8dd
.	.	.	.	16ee
.	.	.	.	16ff
.	4B	.	.	8gg
.	.	.	[8dd	8ff
4C	4c	.	8dd]	4ee
.	.	.	16cc	.
.	.	.	16b	.
4r	8r	.	[4cc	8r
.	8c	.	.	8ee
=17	=17	=17	=17	=17
1r	8d	1r	4cc]	4.ff
.	8c	.	.	.
.	8d	.	[4b-	.
.	8e	.	.	8gg
.	4f	.	8b-]	4.cc
.	.	.	16a	.
.	.	.	16g	.
.	8r	.	8a	.
.	8d	.	8f	8dd
=18	=18	=18	=18	=18
1r	4c	1r	8g	4ee-
.	.	.	8f	.
.	8r	.	8g	8r
.	8F	.	8a	8cc
.	4B-	.	8b-	8dd
.	.	.	8a	8cc
.	8r	.	8b-	8dd
.	8c	.	8g	8ee
=19	=19	=19	=19	=19
4r	4f	1r	8a	8ff
.	.	.	8g	8ee
8r	8r	.	8a	2ff
8F	8A	.	8cc	.
8G	8B-	.	4.b-	.
8F	8A	.	.	.
8G	8B-	.	.	4ee-
8A	8c	.	8f	.
=20	=20	=20	=20	=20
16B-	2B-	1r	4f	2dd
16c	.	.	.	.
16B-	.	.	.	.
16c	.	.	.	.
16B-	.	.	2g	.
16c	.	.	.	.
16B-	.	.	.	.
16c	.	.	.	.
16A	2c	.	.	2cc
16B-	.	.	.	.
16A	.	.	.	.
16B-	.	.	.	.
16A	.	.	[4f	.
16B-	.	.	.	.
16A	.	.	.	.
16B-	.	.	.	.
=21	=21	=21	=21	=21
4G	4d	1r	8f]	2b-
.	.	.	16g	.
.	.	.	16f	.
4C	4c	.	8.e	.
.	.	.	16f	.
4F	4c	.	8f	16a
.	.	.	.	16b-
.	.	.	8f	16a
.	.	.	.	16b-
4r	4r	.	8f	16a
.	.	.	.	16b-
.	.	.	8f	16a
.	.	.	.	16b-
=22	=22	=22	=22	=22
4C	4c	1r	8e	16g
.	.	.	.	16a
.	.	.	8e	16g
.	.	.	.	16a
4r	4r	.	8e	16g
.	.	.	.	16a
.	.	.	8e	16g
.	.	.	.	16b-
4F	4c	.	8f	16a
.	.	.	.	16b-
.	.	.	8f	16a
.	.	.	.	16b-
4r	4r	.	8f	16a
.	.	.	.	16b-
.	.	.	8f	16a
.	.	.	.	16b-
=23	=23	=23	=23	=23
4C	4c	1r	4e	4g
8r	8r	.	8r	8r
8C	8G	.	8e	[8cc
8D	8F	.	4.f	4cc]
8C	8E	.	.	.
8D	8F	.	.	4b-
8E	8G	.	8c	.
=24	=24	=24	=24	=24
16F	4F	1r	4c	4.a
16G	.	.	.	.
16F	.	.	.	.
16G	.	.	.	.
16F	4d	.	4d	.
16G	.	.	.	.
16F	.	.	.	8b
16G	.	.	.	.
16E	4c	.	4g	4cc
16F	.	.	.	.
16E	.	.	.	.
16F	.	.	.	.
16E	8r	.	8r	8r
16F	.	.	.	.
16E	8c	.	8g	[8cc
16F	.	.	.	.
=25	=25	=25	=25	=25
16D	4d	1r	4f	4cc]
16E	.	.	.	.
16D	.	.	.	.
16E	.	.	.	.
16D	8r	.	8r	8r
16E	.	.	.	.
16D	8d	.	8f	[8b-
16E	.	.	.	.
16C	4e	.	4g	4b-]
16D	.	.	.	.
16C	.	.	.	.
16D	.	.	.	.
16C	8r	.	8r	8r
16D	.	.	.	.
16C	8c	.	[8f	8a
16D	.	.	.	.
=26	=26	=26	=26	=26
4C	4c	4r	8f]	4g
.	.	.	16e	.
.	.	.	16d	.
8r	8r	8r	8e	8r
8AA	8A	8c	8f	8cc
4.BB-	4.B-	4.B-	8f	8dd
.	.	.	8e	8cc
.	.	.	8f	8dd
8BB-	8B-	8B-	8g	8ee
=27	=27	=27	=27	=27
4AA	4A	4c	8a	16ff
.	.	.	.	16gg
.	.	.	8a	16ff
.	.	.	.	16gg
8r	8r	8r	8a	16ff
.	.	.	.	16gg
8AA	8A	8c	8a	16ff
.	.	.	.	16gg
8GG	8G	8B-	4b-	4ee-
8FF	8F	8A	.	.
8GG	8G	8B-	8r	8r
8AA	8A	8c	8f	8ee-
=28	=28	=28	=28	=28
2.BB-	4B-	4d	4f	8dd
.	.	.	.	8cc
.	4r	4r	8g	8b-
.	.	.	8f	8a
.	4B-	4c	4e	4g
8AA	8A	4c	[4f	4a
8BB-	8B-	.	.	.
=29	=29	=29	=29	=29
2C	4.c	1r	4f]	2g
.	.	.	4e	.
.	8B-	.	.	.
2FF	2A	.	2c	2f
==	==	==	==	==
*-	*-	*-	*-	*-
